public/mobilepay.svg

<svg fill="none" height="85" viewBox="0 0 375 85" width="375" xmlns="http://www.w3.org/2000/svg" xmlns:xlink="http://www.w3.org/1999/xlink"><clipPath id="a"><path d="m0 0h375v85h-375z"/></clipPath><g clip-path="url(#a)"><path d="m0 0h375v85h-375z" fill="#fff"/><rect fill="#5a78ff" height="84.7634" rx="20" width="375"/><g fill="#fff"><path clip-rule="evenodd" d="m123.148 53.1303h4.003c.316 0 .562-.1408.667-.4923l4.634-14.6593c.071-.2813.351-.2813.457 0l5.512 14.554c.14.3866.351.5976.737.5976h2.493c.351 0 .632-.1759.773-.5976l5.336-14.554c.106-.2813.421-.2813.492 0l4.529 14.6593c.07.2813.281.4923.632.4923h4.248c.421 0 .667-.3164.527-.7735l-6.987-22.569c-.105-.3164-.351-.5625-.667-.5625h-3.582c-.315 0-.596.2812-.702.5625l-5.512 14.2374c-.105.3163-.386.2812-.492 0l-5.547-14.2374c-.105-.2813-.386-.5625-.702-.5625h-3.581c-.316 0-.562.2461-.667.5625l-7.128 22.569c-.14.4923.106.7735.527.7735zm45.608.4569c-5.407 0-9.41-4.0778-9.41-9.2808 0-5.2378 4.003-9.2808 9.41-9.2808 5.442 0 9.409 4.043 9.409 9.2808 0 5.203-3.967 9.2808-9.409 9.2808zm0-4.359c2.563 0 4.634-2.2149 4.634-4.9218 0-2.742-2.071-4.9215-4.634-4.9215-2.528 0-4.635 2.1795-4.635 4.9215 0 2.7069 2.107 4.9218 4.635 4.9218zm22.61 4.359c-2.071 0-3.476-.8438-4.775-1.8983-.351-.2812-.667-.1759-.667.3164v.4572c0 .3514-.281.6678-.632.6678h-3.3c-.351 0-.667-.3164-.667-.6678v-22.5693c0-.3515.316-.6679.667-.6679h3.476c.351 0 .632.3164.632.6679v6.4334c0 .4568.316.5976.807.2461 1.053-.7735 2.598-1.5471 4.6-1.5471 4.81 0 8.496 4.0781 8.496 9.2808 0 5.203-3.757 9.2808-8.637 9.2808zm-.807-4.3941c2.598 0 4.669-2.1798 4.669-4.8867 0-2.742-2.071-4.9215-4.669-4.9215-2.528 0-4.6 2.1444-4.6 4.9215 0 2.742 2.037 4.8867 4.6 4.8867zm15.026-15.6437c1.44 0 2.669-1.2306 2.669-2.6717 0-1.4414-1.229-2.6718-2.669-2.6718-1.439 0-2.668 1.2304-2.668 2.6718 0 1.4411 1.229 2.6717 2.668 2.6717zm-1.79 19.5809h3.476c.351 0 .667-.3164.667-.6678v-16.3118c0-.3515-.316-.6679-.667-.6679h-3.476c-.351 0-.632.3164-.632.6679v16.3118c0 .3514.281.6678.632.6678zm14.5.1756c.351 0 .667-.2812.667-.6327v-2.8825c0-.3869-.316-.6682-.667-.6682-1.229 0-1.72-.7381-1.72-1.8631v-17.3662c0-.3515-.316-.6679-.667-.6679h-3.476c-.351 0-.632.3164-.632.6679v17.2609c0 4.6402 1.861 6.1518 6.495 6.1518zm11.235.2813c-5.336 0-9.128-3.9022-9.128-9.2102 0-5.3436 3.932-9.3514 9.198-9.3514 5.232 0 9.059 4.0781 9.059 9.4216 0 .6327-.176 1.1601-.808 1.1601h-12.077c-.316 0-.422.1756-.387.4569.246 2.0039 2.001 3.4804 4.284 3.4804 1.509 0 2.598-.6679 3.335-1.5117.386-.422.702-.5625 1.124-.5625h3.23c.561 0 .807.3866.597.9492-1.159 2.9881-4.459 5.1676-8.427 5.1676zm-3.721-10.8275h7.408c.246 0 .351-.1054.316-.3866-.351-1.8632-2.002-3.3045-4.003-3.3045-1.931 0-3.546 1.3708-4.002 3.1991-.07.2458-.035.492.281.492zm16.957 10.3706c-.35 0-.631-.3164-.631-.6678v-22.5693c0-.3515.281-.6679.631-.6679h11.06c5.056 0 8.497 2.953 8.497 7.9096 0 4.8515-3.898 8.0153-8.743 8.0153h-5.863c-.421 0-.632.2461-.632.6678v6.6445c0 .3514-.316.6678-.667.6678zm4.916-12.0578h5.898c2.423 0 3.757-2.0742 3.757-3.9022 0-1.9336-1.299-3.7616-3.757-3.7616h-5.898c-.422 0-.597.211-.597.6327v6.398c0 .422.175.6331.597.6331zm25.314 12.5147c-4.705 0-8.637-3.9724-8.637-9.2808 0-5.3432 4.002-9.2808 8.707-9.2808 2.001 0 3.406.7736 4.669 1.7929.317.2813.668.2462.668-.1756v-.5274c0-.3514.281-.6327.632-.6327h3.3c.351 0 .667.3164.667.6679v11.6361c0 .8789.316 1.2655.913 1.3006.316.0351.597.2461.597.5625v3.0584c0 .3164-.246.5976-.597.5976-2.317 0-3.687-.6678-4.459-2.0036-.211-.3518-.457-.422-.807-.0705-1.405 1.3009-3.02 2.3554-5.653 2.3554zm.807-4.359c2.563 0 4.6-2.1798 4.6-4.9218 0-2.7771-2.037-4.9215-4.6-4.9215-2.598 0-4.634 2.1795-4.634 4.9215 0 2.7069 2.036 4.9218 4.634 4.9218zm13.166 10.7573c5.126 0 7.689-2.1447 10.112-7.8748l6.636-15.7841c.175-.4221-.141-.8438-.597-.8438h-3.336c-.351 0-.526.211-.667.5625l-3.862 9.3861c-.316.7384-.737.7735-1.053.0351l-4.038-9.351c-.14-.3514-.351-.6327-.702-.6327h-3.476c-.421 0-.772.3866-.561.9491l6.46 14.6243c.21.492.281.8789.14 1.4063-.491 2.1443-2.738 3.3747-5.056 3.3747-.351 0-.667.2812-.667.6327v2.8474c0 .3518.316.6682.667.6682z" fill-rule="evenodd"/><path clip-rule="evenodd" d="m91.261 49.8024c3.9327-1.2001 7.2597-1.8034 9.981-1.8103 4.499-.0111 8.272.8831 11.317 2.6828v-13.0874c-3.061-1.587-6.519-2.434-10.375-2.5415-3.856-.1071-7.4969.679-10.923 2.359z" fill-rule="evenodd"/><path clip-rule="evenodd" d="m84.8716 35.553 4.8534 11.5677v-11.0863c2.5571-1.3708 5.2646-2.2497 8.1215-2.636 2.8575-.3863 6.1055-.3239 9.7435.187l-2.64-6.3151c-3.824-.2474-7.4676.3695-10.9294 1.8508-3.4618 1.481-6.5114 3.625-9.149 6.4319z" fill-rule="evenodd"/><path d="m94.473 27.3553c-.425-1.032-1.062-2.5799-1.9118-4.6439-.8941-2.1719-3.3669-3.2117-5.523-2.3217l-13.1958 5.4458c-2.156.8897-3.179 3.3721-2.2848 5.5441l12.7236 30.9093c.8942 2.172 3.3667 3.2115 5.523 2.3218l13.1958-5.4459c2.156-.89 3.179-3.372 2.285-5.5443-.806-1.9574-1.332-3.2346-1.577-3.8319-.718-.0423-1.244-.0678-1.576-.0765-.352-.009-.852-.0102-1.502-.0033.317.7696 1.001 2.4316 2.052 4.986.298.724-.043 1.5515-.761 1.8481l-13.1961 5.4455c-.7186.2969-1.5429-.0498-1.841-.7738l-12.7236-30.909c-.298-.7243.0429-1.5516.7615-1.8481l13.1958-5.4459c.7186-.2966 1.5429.0498 1.8409.7738l1.9322 4.694c.5961-.2912 1.0545-.5013 1.3747-.6298.3206-.1284.7231-.2932 1.2076-.4943z"/></g></g></svg>

<svg width="375" height="85" viewBox="0 0 375 85" fill="none" xmlns="http://www.w3.org/2000/svg">
<g clip-path="url(#clip0_211_2)">
<rect width="375" height="85" fill="white"/>
<rect width="375" height="84.7634" rx="20" fill="#5A78FF"/>
<path fill-rule="evenodd" clip-rule="evenodd" d="M123.148 53.1303H127.151C127.467 53.1303 127.713 52.9895 127.818 52.638L132.452 37.9787C132.523 37.6974 132.803 37.6974 132.909 37.9787L138.421 52.5327C138.561 52.9193 138.772 53.1303 139.158 53.1303H141.651C142.002 53.1303 142.283 52.9544 142.424 52.5327L147.76 37.9787C147.866 37.6974 148.181 37.6974 148.252 37.9787L152.781 52.638C152.851 52.9193 153.062 53.1303 153.413 53.1303H157.661C158.082 53.1303 158.328 52.8139 158.188 52.3568L151.201 29.7878C151.096 29.4714 150.85 29.2253 150.534 29.2253H146.952C146.637 29.2253 146.356 29.5065 146.25 29.7878L140.738 44.0252C140.633 44.3415 140.352 44.3064 140.246 44.0252L134.699 29.7878C134.594 29.5065 134.313 29.2253 133.997 29.2253H130.416C130.1 29.2253 129.854 29.4714 129.749 29.7878L122.621 52.3568C122.481 52.8491 122.727 53.1303 123.148 53.1303ZM168.756 53.5872C163.349 53.5872 159.346 49.5094 159.346 44.3064C159.346 39.0686 163.349 35.0256 168.756 35.0256C174.198 35.0256 178.165 39.0686 178.165 44.3064C178.165 49.5094 174.198 53.5872 168.756 53.5872ZM168.756 49.2282C171.319 49.2282 173.39 47.0133 173.39 44.3064C173.39 41.5644 171.319 39.3849 168.756 39.3849C166.228 39.3849 164.121 41.5644 164.121 44.3064C164.121 47.0133 166.228 49.2282 168.756 49.2282ZM191.366 53.5872C189.295 53.5872 187.89 52.7434 186.591 51.6889C186.24 51.4077 185.924 51.513 185.924 52.0053V52.4625C185.924 52.8139 185.643 53.1303 185.292 53.1303H181.992C181.641 53.1303 181.325 52.8139 181.325 52.4625V29.8932C181.325 29.5417 181.641 29.2253 181.992 29.2253H185.468C185.819 29.2253 186.1 29.5417 186.1 29.8932V36.3266C186.1 36.7834 186.416 36.9242 186.907 36.5727C187.96 35.7992 189.505 35.0256 191.507 35.0256C196.317 35.0256 200.003 39.1037 200.003 44.3064C200.003 49.5094 196.246 53.5872 191.366 53.5872ZM190.559 49.1931C193.157 49.1931 195.228 47.0133 195.228 44.3064C195.228 41.5644 193.157 39.3849 190.559 39.3849C188.031 39.3849 185.959 41.5293 185.959 44.3064C185.959 47.0484 187.996 49.1931 190.559 49.1931ZM205.585 33.5494C207.025 33.5494 208.254 32.3188 208.254 30.8777C208.254 29.4363 207.025 28.2059 205.585 28.2059C204.146 28.2059 202.917 29.4363 202.917 30.8777C202.917 32.3188 204.146 33.5494 205.585 33.5494ZM203.795 53.1303H207.271C207.622 53.1303 207.938 52.8139 207.938 52.4625V36.1507C207.938 35.7992 207.622 35.4828 207.271 35.4828H203.795C203.444 35.4828 203.163 35.7992 203.163 36.1507V52.4625C203.163 52.8139 203.444 53.1303 203.795 53.1303ZM218.295 53.3059C218.646 53.3059 218.962 53.0247 218.962 52.6732V49.7907C218.962 49.4038 218.646 49.1225 218.295 49.1225C217.066 49.1225 216.575 48.3844 216.575 47.2594V29.8932C216.575 29.5417 216.259 29.2253 215.908 29.2253H212.432C212.081 29.2253 211.8 29.5417 211.8 29.8932V47.1541C211.8 51.7943 213.661 53.3059 218.295 53.3059ZM229.53 53.5872C224.194 53.5872 220.402 49.685 220.402 44.377C220.402 39.0334 224.334 35.0256 229.6 35.0256C234.832 35.0256 238.659 39.1037 238.659 44.4472C238.659 45.0799 238.483 45.6073 237.851 45.6073H225.774C225.458 45.6073 225.352 45.7829 225.387 46.0642C225.633 48.0681 227.388 49.5446 229.671 49.5446C231.18 49.5446 232.269 48.8767 233.006 48.0329C233.392 47.6109 233.708 47.4704 234.13 47.4704H237.36C237.921 47.4704 238.167 47.857 237.957 48.4196C236.798 51.4077 233.498 53.5872 229.53 53.5872ZM225.809 42.7597H233.217C233.463 42.7597 233.568 42.6543 233.533 42.3731C233.182 40.5099 231.531 39.0686 229.53 39.0686C227.599 39.0686 225.984 40.4394 225.528 42.2677C225.458 42.5135 225.493 42.7597 225.809 42.7597ZM242.766 53.1303C242.416 53.1303 242.135 52.8139 242.135 52.4625V29.8932C242.135 29.5417 242.416 29.2253 242.766 29.2253H253.826C258.882 29.2253 262.323 32.1783 262.323 37.1349C262.323 41.9864 258.425 45.1502 253.58 45.1502H247.717C247.296 45.1502 247.085 45.3963 247.085 45.818V52.4625C247.085 52.8139 246.769 53.1303 246.418 53.1303H242.766ZM247.682 41.0725H253.58C256.003 41.0725 257.337 38.9983 257.337 37.1703C257.337 35.2367 256.038 33.4087 253.58 33.4087H247.682C247.26 33.4087 247.085 33.6197 247.085 34.0414V40.4394C247.085 40.8614 247.26 41.0725 247.682 41.0725ZM272.996 53.5872C268.291 53.5872 264.359 49.6148 264.359 44.3064C264.359 38.9632 268.361 35.0256 273.066 35.0256C275.067 35.0256 276.472 35.7992 277.735 36.8185C278.052 37.0998 278.403 37.0647 278.403 36.6429V36.1155C278.403 35.7641 278.684 35.4828 279.035 35.4828H282.335C282.686 35.4828 283.002 35.7992 283.002 36.1507V47.7868C283.002 48.6657 283.318 49.0523 283.915 49.0874C284.231 49.1225 284.512 49.3335 284.512 49.6499V52.7083C284.512 53.0247 284.266 53.3059 283.915 53.3059C281.598 53.3059 280.228 52.6381 279.456 51.3023C279.245 50.9505 278.999 50.8803 278.649 51.2318C277.244 52.5327 275.629 53.5872 272.996 53.5872ZM273.803 49.2282C276.366 49.2282 278.403 47.0484 278.403 44.3064C278.403 41.5293 276.366 39.3849 273.803 39.3849C271.205 39.3849 269.169 41.5644 269.169 44.3064C269.169 47.0133 271.205 49.2282 273.803 49.2282ZM286.969 59.9855C292.095 59.9855 294.658 57.8408 297.081 52.1107L303.717 36.3266C303.892 35.9045 303.576 35.4828 303.12 35.4828H299.784C299.433 35.4828 299.258 35.6938 299.117 36.0453L295.255 45.4314C294.939 46.1698 294.518 46.2049 294.202 45.4665L290.164 36.1155C290.024 35.7641 289.813 35.4828 289.462 35.4828H285.986C285.565 35.4828 285.214 35.8694 285.425 36.4319L291.885 51.0562C292.095 51.5482 292.166 51.9351 292.025 52.4625C291.534 54.6068 289.287 55.8372 286.969 55.8372C286.618 55.8372 286.302 56.1184 286.302 56.4699V59.3173C286.302 59.6691 286.618 59.9855 286.969 59.9855Z" fill="white"/>
<path fill-rule="evenodd" clip-rule="evenodd" d="M91.261 49.8024C95.1937 48.6023 98.5207 47.999 101.242 47.9921C105.741 47.981 109.514 48.8752 112.559 50.6749V37.5875C109.498 36.0005 106.04 35.1535 102.184 35.046C98.328 34.9389 94.6871 35.725 91.261 37.405V49.8024Z" fill="white"/>
<path fill-rule="evenodd" clip-rule="evenodd" d="M84.8716 35.553L89.725 47.1207V36.0344C92.2821 34.6636 94.9896 33.7847 97.8465 33.3984C100.704 33.0121 103.952 33.0745 107.59 33.5854L104.95 27.2703C101.126 27.0229 97.4824 27.6398 94.0206 29.1211C90.5588 30.6021 87.5092 32.7461 84.8716 35.553Z" fill="white"/>
<path d="M94.473 27.3553C94.048 26.3233 93.411 24.7754 92.5612 22.7114C91.6671 20.5395 89.1943 19.4997 87.0382 20.3897L73.8424 25.8355C71.6864 26.7252 70.6634 29.2076 71.5576 31.3796L84.2812 62.2889C85.1754 64.4609 87.6479 65.5004 89.8042 64.6107L103 59.1648C105.156 58.2748 106.179 55.7928 105.285 53.6205C104.479 51.6631 103.953 50.3859 103.708 49.7886C102.99 49.7463 102.464 49.7208 102.132 49.7121C101.78 49.7031 101.28 49.7019 100.63 49.7088C100.947 50.4784 101.631 52.1404 102.682 54.6948C102.98 55.4188 102.639 56.2463 101.921 56.5429L88.7249 61.9884C88.0063 62.2853 87.182 61.9386 86.8839 61.2146L74.1603 30.3056C73.8623 29.5813 74.2032 28.754 74.9218 28.4575L88.1176 23.0116C88.8362 22.715 89.6605 23.0614 89.9585 23.7854L91.8907 28.4794C92.4868 28.1882 92.9452 27.9781 93.2654 27.8496C93.586 27.7212 93.9885 27.5564 94.473 27.3553Z" fill="white"/>
</g>
<defs>
<clipPath id="clip0_211_2">
<rect width="375" height="85" fill="white"/>
</clipPath>
</defs>
</svg>
